FlatUX/src/svg/Nokia - N-Gage-content.svg

<svg enable-background="new 0 0 256 256" viewBox="0 0 256 256" xmlns="http://www.w3.org/2000/svg"><path d="m212 244h-168c-2.209 0-4-1.791-4-4v-220c0-4.418 3.582-8 8-8h134.497c.969 0 1.905.352 2.634.99l29.503 25.815c.868.76 1.366 1.857 1.366 3.01v198.185c0 2.209-1.791 4-4 4z" fill="#2b3e51"/><path d="m204 228h-156c-2.209 0-4-1.791-4-4v-180c0-2.209 1.791-4 4-4h156c2.209 0 4 1.791 4 4v180c0 2.209-1.791 4-4 4z" fill="#223140"/><path d="m200 224h-148c-2.209 0-4-1.791-4-4v-172c0-2.209 1.791-4 4-4h148c2.209 0 4 1.791 4 4v172c0 2.209-1.791 4-4 4z" fill="#1b80bb"/><path d="m200 240h-148c-2.209 0-4-1.791-4-4 0-2.209 1.791-4 4-4h148c2.209 0 4 1.791 4 4 0 2.209-1.791 4-4 4z" fill="#223140"/></svg>

<svg xmlns="http://www.w3.org/2000/svg" viewBox="0 0 256 256"><path fill="#2b3e51" d="M212 244H44a4 4 0 0 1-4-4V20a8 8 0 0 1 8-8h134.497a4 4 0 0 1 2.634.99l29.503 25.815a4 4 0 0 1 1.366 3.01V240a4 4 0 0 1-4 4"/><path fill="#223140" d="M204 228H48a4 4 0 0 1-4-4V44a4 4 0 0 1 4-4h156a4 4 0 0 1 4 4v180a4 4 0 0 1-4 4"/><path fill="#1b80bb" d="M200 224H52a4 4 0 0 1-4-4V48a4 4 0 0 1 4-4h148a4 4 0 0 1 4 4v172a4 4 0 0 1-4 4"/><path fill="#223140" d="M200 240H52a4 4 0 0 1 0-8h148a4 4 0 0 1 0 8"/></svg>
